; generated by Slic3r 1.3.0 on 2020-01-18 at 11:56:45

; external perimeters extrusion width = 0.55mm (2.33mm^3/s)
; perimeters extrusion width = 0.70mm (9.02mm^3/s)
; infill extrusion width = 0.63mm (12.45mm^3/s)
; solid infill extrusion width = 0.70mm (2.00mm^3/s)
; top infill extrusion width = 0.70mm (1.50mm^3/s)

M107
M190 S30 ; set bed temperature and wait for it to be reached
M104 S245 ; set temperature
G29 A               ; activate bed leveling
M81                  ; switching on power supply
M114                ; print extruder position
G28                   ; home all axes
G90                   ; absolute movements
G1 Z5 F5000     ; lift nozzle to Z=5

; Filament gcode

M109 S245 ; set temperature and wait for it to be reached
G21 ; set units to millimeters
G90 ; use absolute coordinates
M82 ; use absolute distances for extrusion
G92 E0
G1 Z0.225 F12000.000
G1 E-2.00000 F2400.00000
G92 E0
G1 X70.818 Y84.150 F12000.000
G1 E2.00000 F2400.00000
M201 X20 Y20
M204 P20 T20
G1 F1800
G1 X72.318 Y83.284 E2.03011
G1 X73.912 Y82.857 E2.05880
G1 X84.614 Y82.857 E2.24483
G1 X84.936 Y82.873 E2.25045
G1 X115.474 Y85.979 E2.78405
G1 X117.090 Y86.209 E2.81242
G1 X117.466 Y86.286 E2.81910
G1 X118.914 Y86.677 E2.84516
G1 X119.278 Y86.799 E2.85185
G1 X120.668 Y87.361 E2.87791
G1 X121.015 Y87.527 E2.88459
G1 X122.327 Y88.252 E2.91065
G1 X122.651 Y88.458 E2.91733
G1 X123.982 Y89.424 E2.94591
G1 X133.494 Y96.977 E3.15706
G1 X133.857 Y97.314 E3.16567
G1 X134.352 Y97.852 E3.17837
G1 X134.675 Y98.267 E3.18752
G1 X135.075 Y98.879 E3.20022
G1 X135.325 Y99.342 E3.20938
G1 X135.619 Y100.011 E3.22208
G1 X135.790 Y100.509 E3.23123
G1 X135.969 Y101.217 E3.24393
G1 X136.056 Y101.737 E3.25308
G1 X136.116 Y102.465 E3.26579
G1 X136.116 Y102.991 E3.27494
G1 X136.056 Y103.719 E3.28764
G1 X135.969 Y104.239 E3.29679
G1 X135.790 Y104.947 E3.30949
G1 X135.619 Y105.445 E3.31864
G1 X135.325 Y106.114 E3.33134
G1 X135.075 Y106.577 E3.34050
G1 X134.675 Y107.189 E3.35320
G1 X134.352 Y107.604 E3.36235
G1 X133.857 Y108.142 E3.37505
G1 X133.470 Y108.498 E3.38420
G1 X132.893 Y108.947 E3.39690
G1 X132.480 Y109.220 E3.40552
G1 X121.854 Y115.106 E3.61667
G1 X120.383 Y115.839 E3.64524
G1 X120.029 Y115.989 E3.65192
G1 X118.616 Y116.488 E3.67798
G1 X118.246 Y116.594 E3.68467
G1 X116.783 Y116.920 E3.71073
G1 X116.403 Y116.981 E3.71741
G1 X114.911 Y117.128 E3.74347
G1 X114.527 Y117.143 E3.75015
G1 X113.029 Y117.109 E3.77621
G1 X112.645 Y117.077 E3.78290
G1 X73.438 Y111.197 E4.47208
G1 X72.318 Y110.805 E4.49272
G1 X70.818 Y109.939 E4.52283
G1 X69.651 Y108.773 E4.55151
G1 X64.300 Y99.505 E4.73755
G1 X63.873 Y97.911 E4.76624
G1 X63.873 Y96.179 E4.79635
G1 X64.300 Y94.585 E4.82503
G1 X69.651 Y85.317 E5.01107
G1 X70.765 Y84.203 E5.03845
M201 X9000 Y9000
M204 P9000 T9000
G1 E3.03845 F2400.00000
G92 E0
G1 X85.671 Y103.902 F12000.000
G1 E2.00000 F2400.00000
M201 X20 Y20
M204 P20 T20
G1 F2700
G1 X84.938 Y104.457 E2.01598
G1 X84.099 Y104.967 E2.03306
G1 X83.284 Y105.352 E2.04873
G1 X82.425 Y105.659 E2.06459
G1 X81.992 Y105.774 E2.07237
G1 X81.169 Y105.946 E2.08698
G1 X80.333 Y106.037 E2.10161
G1 X79.376 Y106.045 E2.11825
G1 X78.918 Y106.001 E2.12624
G1 X78.494 Y105.987 E2.13362
G1 X77.493 Y105.844 E2.15118
G1 X76.436 Y105.563 E2.17020
G1 X75.399 Y105.142 E2.18966
G1 X75.074 Y104.979 E2.19597
G1 X74.134 Y104.410 E2.21508
G1 X73.249 Y103.708 E2.23471
G1 X72.450 Y102.887 E2.25463
G1 X71.755 Y101.960 E2.27478
G1 X71.110 Y100.797 E2.29790
G1 X70.847 Y100.153 E2.30998
G1 X70.670 Y99.634 E2.31952
G1 X70.445 Y98.718 E2.33592
G1 X70.302 Y97.753 E2.35288
G1 X70.223 Y96.873 E2.36823
G1 X70.240 Y95.856 E2.38591
G1 X70.364 Y94.892 E2.40280
G1 X70.588 Y93.953 E2.41959
G1 X70.907 Y93.046 E2.43631
G1 X71.325 Y92.165 E2.45325
G1 X71.865 Y91.283 E2.47124
G1 X72.484 Y90.485 E2.48879
G1 X73.182 Y89.761 E2.50627
G1 X73.789 Y89.253 E2.52004
G1 X74.030 Y89.080 E2.52519
G1 X74.757 Y88.647 E2.53990
G1 X75.729 Y88.192 E2.55856
G1 X76.803 Y87.836 E2.57822
G1 X77.941 Y87.606 E2.59840
G1 X79.262 Y87.516 E2.62143
G1 X80.541 Y87.600 E2.64370
G1 X81.693 Y87.828 E2.66412
G1 X82.814 Y88.199 E2.68466
G1 X83.886 Y88.710 E2.70530
G1 X84.890 Y89.354 E2.72603
G1 X85.916 Y90.219 E2.74935
G1 X86.717 Y91.105 E2.77012
G1 X87.402 Y92.085 E2.79090
G1 X87.960 Y93.147 E2.81175
G1 X88.412 Y94.374 E2.83449
G1 X88.675 Y95.543 E2.85533
G1 X88.790 Y96.739 E2.87620
G1 X88.752 Y97.941 E2.89711
G1 X88.564 Y99.124 E2.91793
G1 X88.357 Y99.896 E2.93183
G1 X88.114 Y100.580 E2.94445
G1 X87.692 Y101.495 E2.96196
G1 X87.407 Y101.970 E2.97160
G1 X87.137 Y102.368 E2.97996
G1 X86.461 Y103.162 E2.99808
G1 X85.726 Y103.851 E3.01559
M201 X9000 Y9000
M204 P9000 T9000
G1 X85.550 Y103.758 F12000.000
M201 X20 Y20
M204 P20 T20
G1 F2700
G1 X84.833 Y104.301 E3.03123
G1 X84.009 Y104.802 E3.04798
G1 X83.212 Y105.178 E3.06332
G1 X82.369 Y105.480 E3.07888
G1 X81.949 Y105.591 E3.08644
G1 X81.140 Y105.760 E3.10080
G1 X80.322 Y105.849 E3.11510
G1 X79.384 Y105.857 E3.13141
G1 X78.930 Y105.813 E3.13933
G1 X78.510 Y105.799 E3.14664
G1 X77.531 Y105.659 E3.16383
G1 X76.496 Y105.384 E3.18245
G1 X75.477 Y104.970 E3.20157
G1 X75.165 Y104.815 E3.20763
G1 X74.242 Y104.255 E3.22639
G1 X73.376 Y103.568 E3.24561
G1 X72.593 Y102.764 E3.26511
G1 X71.913 Y101.857 E3.28482
G1 X71.279 Y100.715 E3.30753
G1 X71.023 Y100.087 E3.31932
G1 X70.850 Y99.581 E3.32861
G1 X70.630 Y98.681 E3.34472
G1 X70.489 Y97.731 E3.36143
G1 X70.411 Y96.866 E3.37652
G1 X70.428 Y95.870 E3.39384
G1 X70.549 Y94.926 E3.41038
G1 X70.769 Y94.006 E3.42682
G1 X71.082 Y93.118 E3.44319
G1 X71.490 Y92.254 E3.45980
G1 X72.020 Y91.390 E3.47742
G1 X72.626 Y90.608 E3.49462
G1 X73.310 Y89.898 E3.51175
G1 X73.904 Y89.402 E3.52522
G1 X74.133 Y89.238 E3.53011
G1 X74.845 Y88.813 E3.54453
G1 X75.799 Y88.367 E3.56282
G1 X76.851 Y88.018 E3.58210
G1 X77.966 Y87.793 E3.60186
G1 X79.262 Y87.705 E3.62446
G1 X80.516 Y87.786 E3.64631
G1 X81.645 Y88.010 E3.66630
G1 X82.744 Y88.374 E3.68643
G1 X83.795 Y88.875 E3.70667
G1 X84.778 Y89.505 E3.72698
G1 X85.785 Y90.355 E3.74987
G1 X86.570 Y91.222 E3.77020
G1 X87.241 Y92.183 E3.79058
G1 X87.788 Y93.223 E3.81101
G1 X88.231 Y94.427 E3.83331
G1 X88.489 Y95.573 E3.85374
G1 X88.601 Y96.745 E3.87419
G1 X88.565 Y97.923 E3.89468
G1 X88.380 Y99.085 E3.91513
G1 X88.178 Y99.840 E3.92873
G1 X87.940 Y100.509 E3.94107
G1 X87.525 Y101.407 E3.95826
G1 X87.248 Y101.869 E3.96763
G1 X86.987 Y102.254 E3.97572
G1 X86.325 Y103.032 E3.99348
G1 X85.605 Y103.707 E4.01063
M201 X9000 Y9000
M204 P9000 T9000
G1 X85.429 Y103.614 F12000.000
M201 X20 Y20
M204 P20 T20
G1 F900
G1 X84.727 Y104.145 E4.02593
G1 X83.920 Y104.636 E4.04234
G1 X83.140 Y105.004 E4.05735
G1 X82.313 Y105.300 E4.07261
G1 X81.905 Y105.408 E4.07995
G1 X81.110 Y105.574 E4.09406
G1 X80.311 Y105.661 E4.10804
G1 X79.392 Y105.669 E4.12401
G1 X78.943 Y105.625 E4.13186
G1 X78.526 Y105.612 E4.13910
G1 X77.569 Y105.475 E4.15592
G1 X76.556 Y105.205 E4.17414
G1 X75.554 Y104.799 E4.19293
G1 X75.256 Y104.650 E4.19873
G1 X74.349 Y104.101 E4.21715
G1 X73.502 Y103.428 E4.23596
G1 X72.736 Y102.642 E4.25504
G1 X72.071 Y101.755 E4.27431
G1 X71.449 Y100.634 E4.29660
G1 X71.199 Y100.021 E4.30810
G1 X71.031 Y99.529 E4.31715
G1 X70.814 Y98.645 E4.33296
G1 X70.676 Y97.708 E4.34943
G1 X70.600 Y96.859 E4.36425
G1 X70.616 Y95.883 E4.38121
G1 X70.734 Y94.960 E4.39740
G1 X70.949 Y94.059 E4.41350
G1 X71.256 Y93.189 E4.42953
G1 X71.656 Y92.344 E4.44579
G1 X72.175 Y91.497 E4.46306
G1 X72.768 Y90.731 E4.47990
G1 X73.438 Y90.036 E4.49668
G1 X74.019 Y89.550 E4.50985
G1 X74.236 Y89.395 E4.51448
G1 X74.933 Y88.979 E4.52860
G1 X75.868 Y88.542 E4.54654
G1 X76.899 Y88.200 E4.56542
G1 X77.991 Y87.979 E4.58478
G1 X79.263 Y87.893 E4.60694
G1 X80.492 Y87.973 E4.62835
G1 X81.597 Y88.192 E4.64793
G1 X82.674 Y88.549 E4.66766
G1 X83.703 Y89.040 E4.68748
G1 X84.667 Y89.657 E4.70737
G1 X85.654 Y90.490 E4.72983
G1 X86.423 Y91.339 E4.74974
G1 X87.080 Y92.281 E4.76971
G1 X87.616 Y93.300 E4.78971
G1 X88.051 Y94.480 E4.81159
G1 X88.303 Y95.603 E4.83159
G1 X88.413 Y96.751 E4.85163
G1 X88.377 Y97.905 E4.87171
G1 X88.196 Y99.045 E4.89178
G1 X87.998 Y99.784 E4.90508
G1 X87.766 Y100.438 E4.91714
G1 X87.359 Y101.319 E4.93401
G1 X87.090 Y101.768 E4.94311
G1 X86.837 Y102.140 E4.95093
G1 X86.189 Y102.902 E4.96832
G1 X85.483 Y103.563 E4.98512
M201 X9000 Y9000
M204 P9000 T9000
G1 X85.517 Y104.106 F12000.000
G1 E2.98512 F2400.00000
G92 E0
G1 X85.752 Y106.817 F12000.000
G1 E2.00000 F2400.00000
M201 X20 Y20
M204 P20 T20
G1 F2700
G1 X84.481 Y107.551 E2.02551
G1 X74.044 Y107.551 E2.20694
G1 X72.774 Y106.817 E2.23245
G1 X67.555 Y97.778 E2.41388
G1 X67.555 Y96.311 E2.43939
G1 X72.774 Y87.272 E2.62082
G1 X74.044 Y86.539 E2.64633
G1 X84.481 Y86.539 E2.82776
G1 X85.738 Y87.264 E2.85298
G1 X90.970 Y96.311 E3.03467
G1 X90.970 Y97.778 E3.06017
G1 X85.789 Y106.752 E3.24030
M201 X9000 Y9000
M204 P9000 T9000
G1 X85.890 Y106.954 F12000.000
M201 X20 Y20
M204 P20 T20
G1 F2700
G1 X84.532 Y107.738 E3.26756
G1 X73.994 Y107.738 E3.45074
G1 X72.636 Y106.954 E3.47800
G1 X67.367 Y97.829 E3.66118
G1 X67.367 Y96.261 E3.68844
G1 X72.636 Y87.135 E3.87162
G1 X73.994 Y86.351 E3.89888
G1 X84.532 Y86.351 E4.08207
G1 X85.875 Y87.126 E4.10903
G1 X91.158 Y96.261 E4.29247
G1 X91.158 Y97.829 E4.31973
G1 X85.927 Y106.890 E4.50161
M201 X9000 Y9000
M204 P9000 T9000
G1 X86.027 Y107.092 F12000.000
M201 X20 Y20
M204 P20 T20
G1 F900
G1 X84.582 Y107.926 E4.53062
G1 X73.944 Y107.926 E4.71555
G1 X72.498 Y107.092 E4.74456
G1 X67.179 Y97.879 E4.92950
G1 X67.179 Y96.210 E4.95851
G1 X72.498 Y86.997 E5.14344
G1 X73.944 Y86.163 E5.17245
G1 X84.582 Y86.163 E5.35739
G1 X86.013 Y86.989 E5.38610
G1 X91.346 Y96.210 E5.57129
G1 X91.346 Y97.879 E5.60030
G1 X86.065 Y107.027 E5.78393
M201 X9000 Y9000
M204 P9000 T9000
G1 X85.553 Y106.932 F12000.000
G1 X85.591 Y106.702 F12000.000
M201 X20 Y20
M204 P20 T20
G1 F600
G1 X85.637 Y106.656 E5.78506
G1 X86.001 Y106.026 E5.79774
G1 X84.961 Y107.066 E5.82337
G1 X84.408 Y107.385 E5.83449
G1 X84.375 Y107.385 E5.83506
G1 X86.365 Y105.396 E5.88409
G1 X86.729 Y104.765 E5.89677
G1 X84.109 Y107.385 E5.96133
G1 X83.843 Y107.385 E5.96597
G1 X87.093 Y104.135 E6.04607
G1 X87.457 Y103.504 E6.05875
G1 X83.576 Y107.385 E6.15438
G1 X83.310 Y107.385 E6.15902
G1 X87.821 Y102.874 E6.27018
G1 X88.185 Y102.244 E6.28286
G1 X83.043 Y107.385 E6.40955
G1 X82.777 Y107.385 E6.41420
G1 X88.549 Y101.613 E6.55642
G1 X88.913 Y100.983 E6.56911
G1 X82.510 Y107.385 E6.72687
G1 X82.244 Y107.385 E6.73151
G1 X84.997 Y104.632 E6.79934
G1 X84.317 Y105.045 E6.81320
G1 X81.978 Y107.385 E6.87085
G1 X81.711 Y107.385 E6.87549
G1 X83.785 Y105.311 E6.92660
G1 X83.298 Y105.532 E6.93592
G1 X81.445 Y107.385 E6.98159
G1 X81.178 Y107.385 E6.98623
G1 X82.883 Y105.680 E7.02824
G1 X82.472 Y105.825 E7.03582
G1 X80.912 Y107.385 E7.07428
G1 X80.645 Y107.385 E7.07892
G1 X82.110 Y105.921 E7.11500
G1 X81.769 Y105.995 E7.12107
G1 X80.379 Y107.385 E7.15532
G1 X80.112 Y107.385 E7.15996
G1 X81.432 Y106.065 E7.19249
G1 X81.110 Y106.121 E7.19819
G1 X79.846 Y107.385 E7.22933
G1 X79.580 Y107.385 E7.23397
G1 X80.811 Y106.154 E7.26431
G1 X80.512 Y106.186 E7.26955
G1 X79.313 Y107.385 E7.29909
G1 X79.047 Y107.385 E7.30373
G1 X80.229 Y106.203 E7.33285
G1 X79.960 Y106.206 E7.33753
G1 X78.780 Y107.385 E7.36660
G1 X78.514 Y107.385 E7.37124
G1 X79.691 Y106.208 E7.40025
G1 X79.422 Y106.210 E7.40493
G1 X78.247 Y107.385 E7.43388
G1 X77.981 Y107.385 E7.43852
G1 X79.176 Y106.190 E7.46797
G1 X78.933 Y106.166 E7.47222
G1 X77.715 Y107.385 E7.50226
G1 X77.448 Y107.385 E7.50690
G1 X78.676 Y106.157 E7.53715
G1 X78.426 Y106.141 E7.54152
G1 X77.182 Y107.385 E7.57218
G1 X76.915 Y107.385 E7.57682
G1 X78.193 Y106.108 E7.60830
G1 X77.960 Y106.074 E7.61240
G1 X76.649 Y107.385 E7.64470
G1 X76.382 Y107.385 E7.64934
G1 X77.726 Y106.041 E7.68246
G1 X77.493 Y106.008 E7.68656
G1 X76.116 Y107.385 E7.72050
G1 X75.850 Y107.385 E7.72514
G1 X77.281 Y105.953 E7.76043
G1 X77.071 Y105.897 E7.76422
G1 X75.583 Y107.385 E7.80088
G1 X75.317 Y107.385 E7.80552
G1 X76.860 Y105.841 E7.84357
G1 X76.650 Y105.785 E7.84736
G1 X75.050 Y107.385 E7.88678
G1 X74.784 Y107.385 E7.89142
G1 X76.440 Y105.729 E7.93223
G1 X76.246 Y105.656 E7.93583
G1 X74.517 Y107.385 E7.97843
G1 X74.251 Y107.385 E7.98307
G1 X76.057 Y105.580 E8.02756
G1 X75.867 Y105.503 E8.03113
G1 X74.017 Y107.353 E8.07673
G1 X73.848 Y107.256 E8.08012
G1 X75.677 Y105.426 E8.12521
G1 X75.488 Y105.349 E8.12878
G1 X73.679 Y107.158 E8.17336
G1 X73.510 Y107.061 E8.17676
G1 X75.301 Y105.269 E8.22090
G1 X75.124 Y105.180 E8.22436
G1 X73.341 Y106.963 E8.26829
G1 X73.172 Y106.865 E8.27169
G1 X74.950 Y105.088 E8.31550
G1 X74.784 Y104.987 E8.31888
G1 X73.003 Y106.768 E8.36276
G1 X72.889 Y106.702 E8.36506
G1 X72.857 Y106.647 E8.36616
G1 X74.618 Y104.887 E8.40955
G1 X74.452 Y104.786 E8.41293
G1 X72.760 Y106.479 E8.45463
G1 X72.662 Y106.310 E8.45803
G1 X74.286 Y104.686 E8.49805
G1 X74.120 Y104.585 E8.50143
G1 X72.565 Y106.141 E8.53976
G1 X72.467 Y105.972 E8.54316
G1 X73.964 Y104.475 E8.58005
G1 X73.816 Y104.357 E8.58336
G1 X72.370 Y105.803 E8.61899
G1 X72.272 Y105.634 E8.62239
G1 X73.667 Y104.239 E8.65677
G1 X73.519 Y104.121 E8.66007
G1 X72.174 Y105.465 E8.69319
G1 X72.077 Y105.296 E8.69659
G1 X73.370 Y104.003 E8.72845
G1 X73.221 Y103.885 E8.73176
G1 X71.979 Y105.127 E8.76236
G1 X71.882 Y104.958 E8.76576
G1 X73.081 Y103.759 E8.79531
G1 X72.950 Y103.624 E8.79860
G1 X71.784 Y104.789 E8.82731
G1 X71.687 Y104.620 E8.83071
G1 X72.818 Y103.489 E8.85859
G1 X72.687 Y103.354 E8.86188
G1 X71.589 Y104.452 E8.88892
G1 X71.492 Y104.283 E8.89232
G1 X72.555 Y103.219 E8.91853
G1 X72.424 Y103.084 E8.92181
G1 X71.394 Y104.114 E8.94719
G1 X71.297 Y103.945 E8.95059
G1 X72.297 Y102.944 E8.97524
G1 X72.183 Y102.792 E8.97856
G1 X71.199 Y103.776 E9.00281
G1 X71.102 Y103.607 E9.00620
G1 X72.069 Y102.640 E9.03004
G1 X71.955 Y102.487 E9.03336
G1 X71.004 Y103.438 E9.05679
G1 X70.907 Y103.269 E9.06019
G1 X71.841 Y102.335 E9.08321
G1 X71.727 Y102.183 E9.08652
G1 X70.809 Y103.100 E9.10913
G1 X70.712 Y102.931 E9.11253
G1 X71.614 Y102.029 E9.13476
G1 X71.519 Y101.858 E9.13818
G1 X70.614 Y102.762 E9.16047
G1 X70.517 Y102.594 E9.16387
G1 X71.424 Y101.687 E9.18622
G1 X71.329 Y101.515 E9.18963
G1 X70.419 Y102.425 E9.21204
G1 X70.322 Y102.256 E9.21544
G1 X71.233 Y101.344 E9.23791
G1 X71.138 Y101.172 E9.24132
G1 X70.224 Y102.087 E9.26385
G1 X70.127 Y101.918 E9.26725
G1 X71.043 Y101.001 E9.28984
G1 X70.951 Y100.827 E9.29327
G1 X70.029 Y101.749 E9.31599
G1 X69.931 Y101.580 E9.31939
G1 X70.874 Y100.638 E9.34260
G1 X70.796 Y100.449 E9.34616
G1 X69.834 Y101.411 E9.36987
G1 X69.736 Y101.242 E9.37327
G1 X70.719 Y100.260 E9.39748
G1 X70.648 Y100.064 E9.40110
G1 X69.639 Y101.073 E9.42597
G1 X69.541 Y100.904 E9.42937
G1 X70.580 Y99.866 E9.45497
G1 X70.513 Y99.667 E9.45862
G1 X69.444 Y100.735 E9.48496
G1 X69.346 Y100.567 E9.48836
G1 X70.460 Y99.453 E9.51579
G1 X70.407 Y99.239 E9.51963
G1 X69.249 Y100.398 E9.54818
G1 X69.151 Y100.229 E9.55158
G1 X70.355 Y99.025 E9.58124
G1 X70.302 Y98.811 E9.58508
G1 X69.054 Y100.060 E9.61585
G1 X68.956 Y99.891 E9.61925
G1 X70.261 Y98.586 E9.65141
G1 X70.227 Y98.354 E9.65549
G1 X68.859 Y99.722 E9.68921
G1 X68.761 Y99.553 E9.69261
G1 X70.193 Y98.121 E9.72789
G1 X70.159 Y97.889 E9.73198
G1 X68.664 Y99.384 E9.76881
G1 X68.566 Y99.215 E9.77221
G1 X70.129 Y97.652 E9.81073
G1 X70.107 Y97.408 E9.81500
G1 X68.469 Y99.046 E9.85538
G1 X68.371 Y98.877 E9.85878
G1 X70.085 Y97.163 E9.90102
G1 X70.063 Y96.919 E9.90530
G1 X68.274 Y98.709 E9.94940
G1 X68.176 Y98.540 E9.95280
G1 X70.061 Y96.654 E9.99925
G1 X70.066 Y96.383 E10.00397
G1 X68.079 Y98.371 E10.05294
G1 X67.981 Y98.202 E10.05634
G1 X70.070 Y96.112 E10.10783
G1 X70.075 Y95.841 E10.11255
G1 X67.884 Y98.033 E10.16655
G1 X67.786 Y97.864 E10.16995
G1 X70.111 Y95.539 E10.22724
G1 X70.150 Y95.233 E10.23261
G1 X67.720 Y97.663 E10.29248
G1 X67.720 Y97.397 E10.29712
G1 X70.189 Y94.928 E10.35796
G1 X70.259 Y94.591 E10.36395
G1 X67.720 Y97.130 E10.42651
G1 X67.720 Y96.864 E10.43115
G1 X70.343 Y94.241 E10.49578
G1 X70.427 Y93.891 E10.50205
G1 X67.720 Y96.597 E10.56873
G1 X67.720 Y96.384 E10.57245
G1 X67.793 Y96.259 E10.57497
G1 X70.569 Y93.482 E10.64339
